X:16
T:"Walzer aus Bayern" - Walzer/Waltz/Valse
N:transkription Regensburger Bordunmusik casette BordunMusik-Fest 1989
Z:abc transcription Simon Wascher
N:please mail errors to simon.wascher@chello.at
M:3/4
L:1/4
K:G
e/d/c/|B/d/d/B/d|c/d/d/c/d|A/d/d/c/d/e/|dcB|
B/d/d/B/d|c/d/d/c/d|A/d/d/c/d/F/|G3/:|
|:z/d/e/|d>ed/c/|B/d/Gd/e/|d>cA/F/|G/B/Dd/e/|
d>ed/c/|B/d/Gd/e/|d>cA/F/|G3/:|
|:z/B/c/|d/c/d>G|F/G/A/B/c/d/|e/d/dF|A/G/GB/c/|
d/c/d>G|F/G/A/B/c/d/|e/d/dF|G3/:|
